src/assets/images/sort-icon-normal.svg

<?xml version="1.0" encoding="UTF-8"?>
<svg width="13px" height="16px" viewBox="0 0 13 16" version="1.1" xmlns="http://www.w3.org/2000/svg" xmlns:xlink="http://www.w3.org/1999/xlink">
    <!-- Generator: Sketch 55.2 (78181) - https://sketchapp.com -->
    <title>drop-down(1)</title>
    <desc>Created with Sketch.</desc>
    <g id="Final-Screens" stroke="none" stroke-width="1" fill="none" fill-rule="evenodd">
        <g id="customer-master-v1.2-copy-9" transform="translate(-215.000000, -222.000000)" fill="#FFFFFF" fill-rule="nonzero">
            <g id="Group-15" transform="translate(40.000000, 145.000000)">
                <g id="drop-down(1)" transform="translate(175.000000, 77.000000)">
                    <path d="M1.13435203,6.7418696 L11.5349611,6.7418696 C11.9559027,6.7418696 12.3419992,6.58320704 12.5384145,6.33017714 C12.7345586,6.07662453 12.7087526,5.77076861 12.4708939,5.53394321 L7.20650359,0.300476983 C7.01804254,0.113156761 6.70601975,0.00101676705 6.37225841,0 C6.03885862,-0.000551409457 5.72584155,0.1102049 5.53584389,0.296971647 L0.202034797,5.53053012 C-0.0383547215,5.76631007 -0.0663301138,6.07367267 0.129407244,6.32817849 C0.325144601,6.58225383 0.712280644,6.7418696 1.13435203,6.7418696 Z" id="XMLID_623_"></path>
                    <path d="M11.5349598,9.2581304 L1.13433856,9.2581304 C0.712266679,9.2581304 0.325130184,9.41780695 0.129392598,9.6718504 C-0.0663449879,9.92635508 -0.0383243684,10.2337163 0.202020236,10.4694337 L5.53583556,15.7029686 C5.72583344,15.8897345 6.03885087,16.0004903 6.37225105,16 C6.70601279,15.9990452 7.01803594,15.8867827 7.20649721,15.6995248 L12.4708937,10.4659899 C12.7087526,10.2292578 12.7345587,9.92334173 12.5384144,9.66975951 C12.3419989,9.41679225 11.9559018,9.2581304 11.5349598,9.2581304 Z" id="XMLID_622_"></path>
                </g>
            </g>
        </g>
    </g>
</svg>

<?xml version="1.0" encoding="UTF-8"?>
<svg version="1.1" viewBox="0 0 13 16" xmlns="http://www.w3.org/2000/svg">
<title>drop-down(1)</title>
<desc>Created with Sketch.</desc>
<g fill="none" fill-rule="evenodd">
<g transform="translate(-215 -222)" fill="#fff" fill-rule="nonzero">
<g transform="translate(40 145)">
<g transform="translate(175 77)">
<path d="m1.1344 6.7419h10.401c0.42094 0 0.80704-0.15866 1.0035-0.41169 0.19614-0.25355 0.17034-0.55941-0.067521-0.79623l-5.2644-5.2335c-0.18846-0.18732-0.50048-0.29946-0.83425-0.30048-0.3334-5.5141e-4 -0.64642 0.1102-0.83641 0.29697l-5.3338 5.2336c-0.24039 0.23578-0.26836 0.54314-0.072628 0.79765 0.19574 0.25408 0.58287 0.41369 1.0049 0.41369z"/>
<path d="m11.535 9.2581h-10.401c-0.42207 0-0.80921 0.15968-1.0049 0.41372-0.19574 0.2545-0.16772 0.56187 0.072628 0.79758l5.3338 5.2335c0.19 0.18677 0.50302 0.29752 0.83642 0.29703 0.33376-9.548e-4 0.64578-0.11322 0.83425-0.30048l5.2644-5.2335c0.23786-0.23673 0.26366-0.54265 0.067521-0.79623-0.19642-0.25297-0.58251-0.41163-1.0035-0.41163z"/>
</g>
</g>
</g>
</g>
</svg>
